X:1
T:Ave Maria
T:Schubert
L:1/8
Q:1/4=57
M:4/4
K:Bb
V:1 treble-8 nm="Piano" snm="Pno."
V:1
 (3B,FB (3dBF (3B,FB (3dBF | (3B,Bd (3fdB (3B,df (3_afd | (3B,Be (3geB (3B,Ae (3^feA | %3
 (3B,Bd (3fdB (3B,DF (3BFD | (3B,DF (3BFD (3G,D=E (3BED | (3F,DF (3BFD (3F,EA (3cAE | %6
 (3G,GB (3dBG (3G,GB (3dBG | (3E,EG (3cGE (3F,EF (3AFE | (3B,FB (3dBF (3B,DF (3BFD | %9
 (3B,D^F (3BFD (3B,DG (3BGD | (3A,GB (3dBG (3A,GA (3^cAG | (3^F,Ac (3ecA (3F,EA (3cAE | %12
 (3G,GB (3dBG (3G,=EB (3dBE | (3A,CF (3AFC (3DG=B (3fBG | (3CAc (3fcA (3CBc (3=ecB | %15
 (3F,Ac (3fcA (3F,Ac (3fcA | (3F,EA (3cAE (3F,EA (3cAE | (3F,Bd (3fdB (3F,Bd (3fdB | %18
 (3F,EA (3cAE (3F,EA (3cAE | (3G,GB (3dBG (3G,B,D (3GDB, | (3F,FA (3cAF (3D^FA (3dAF | %21
 (3CGc (3ecG (3CGc (3ecG | (3E,CE (3GEC (3G,_DE (3BDE | (3F,FA (3cAF (3F,EA (3cAE | %24
 (3B,FB (3dBF (3G,=EB (3dBE | (3F,FB (3dBF (3F,EA (3cAE | (3B,DF (3BFD (3B,DF (3Bdf | %27
 !fermata!b4 z4 |] %28

